Dominus_Funeral/22/categories/applications-office.svg

<svg xmlns="http://www.w3.org/2000/svg" width="24" height="24" version="1"><defs><linearGradient id="b"><stop offset="0" stop-opacity="0"/><stop offset=".5"/><stop offset="1" stop-opacity="0"/></linearGradient><linearGradient id="a"><stop offset="0"/><stop offset="1" stop-opacity="0"/></linearGradient></defs><g fill="#1a1a1a"><path d="M.08 10.47h1.2v11.05h7.97V10.47h1.2V8.2H.08zM19.8 14.7c1.2-.03 1.72-1.1 1.55-2.02.1-.38.1-.8-.05-1.18a12.02 12.02 0 0 0-7.11-7.28C12.9 3.7 11.4 4.8 11.07 6c-.13.45-.13.87-.03 1.25v5.84a1.38 1.38 0 0 0 2.03 1.2 9.5 9.5 0 0 0-2.23 4.9c-.34 2.07 2.83 2.96 3.17.87.52-3.27 2.37-5.3 5.79-5.37zm-6.16-.98c.1-.2.16-.4.16-.63V9.63c1 .64 1.82 1.58 2.3 2.53-.92.38-1.74.9-2.46 1.56zM10.57 5.64a2.24 2.24 0 0 0-4.47 0v.09a2.24 2.24 0 0 0 4.47 0v-.05-.04z"/><path d="M23.83 10.8c0-.95-.14-1.9-.27-2.83-.05-.32-.1-.64-.13-.94a.6.6 0 1 0-1.19.14l.13.97a19.4 19.4 0 0 1 .27 2.75c.47 4.95-1.39 5.18-3.54 5.44-1.7.2-3.8.47-3.79 3.6a.6.6 0 1 0 1.2 0c-.01-1.99.88-2.19 2.74-2.41l.33-.04v2.5l-1.94.91a.3.3 0 0 0-.14.4.3.3 0 0 0 .4.14l1.93-.92 1.78.92.14.03a.3.3 0 0 0 .14-.56l-1.7-.88v-2.63c1.99-.34 4.14-1.34 3.64-6.58zM.84 6.64h4.43v.94H.84zM.84 5.48h4.43v.94H.84zM.84 4.8h4.43v.47H.84zM.84 4.15h4.43v.33H.84zM.84 3.57h4.43v.22H.84zM.84 3.2h4.43v.22H.84zM.84 2.84h4.43v.22H.84zM.84 2.47h4.43v.22H.84z"/></g></svg>

<?xml version="1.0" encoding="UTF-8" standalone="no"?>
<svg
   xmlns:dc="http://purl.org/dc/elements/1.1/"
   xmlns:cc="http://creativecommons.org/ns#"
   xmlns:rdf="http://www.w3.org/1999/02/22-rdf-syntax-ns#"
   xmlns:svg="http://www.w3.org/2000/svg"
   xmlns="http://www.w3.org/2000/svg"
   xmlns:sodipodi="http://sodipodi.sourceforge.net/DTD/sodipodi-0.dtd"
   xmlns:inkscape="http://www.inkscape.org/namespaces/inkscape"
   width="24"
   height="24"
   version="1"
   id="svg8"
   sodipodi:docname="applications-office.svg"
   inkscape:version="0.92.4 (5da689c313, 2019-01-14)">
  <metadata
     id="metadata14">
    <rdf:RDF>
      <cc:Work
         rdf:about="">
        <dc:format>image/svg+xml</dc:format>
        <dc:type
           rdf:resource="http://purl.org/dc/dcmitype/StillImage" />
        <dc:title></dc:title>
      </cc:Work>
    </rdf:RDF>
  </metadata>
  <defs
     id="defs12" />
  <sodipodi:namedview
     pagecolor="#ffffff"
     bordercolor="#666666"
     borderopacity="1"
     objecttolerance="10"
     gridtolerance="10"
     guidetolerance="10"
     inkscape:pageopacity="0"
     inkscape:pageshadow="2"
     inkscape:window-width="1142"
     inkscape:window-height="480"
     id="namedview10"
     showgrid="false"
     inkscape:zoom="9.8333333"
     inkscape:cx="1.2711864"
     inkscape:cy="12"
     inkscape:window-x="0"
     inkscape:window-y="25"
     inkscape:window-maximized="0"
     inkscape:current-layer="svg8" />
  <g
     id="g6"
     style="fill:#1a1a1a">
    <path
       d="m 0.08,10.47 h 1.2 V 21.52 H 9.25 V 10.47 h 1.2 V 8.2 H 0.08 Z M 19.8,14.7 c 1.2,-0.03 1.72,-1.1 1.55,-2.02 0.1,-0.38 0.1,-0.8 -0.05,-1.18 A 12.02,12.02 0 0 0 14.19,4.22 C 12.9,3.7 11.4,4.8 11.07,6 10.94,6.45 10.94,6.87 11.04,7.25 v 5.84 a 1.38,1.38 0 0 0 2.03,1.2 9.5,9.5 0 0 0 -2.23,4.9 c -0.34,2.07 2.83,2.96 3.17,0.87 0.52,-3.27 2.37,-5.3 5.79,-5.37 z m -6.16,-0.98 c 0.1,-0.2 0.16,-0.4 0.16,-0.63 V 9.63 c 1,0.64 1.82,1.58 2.3,2.53 a 8.3,8.3 0 0 0 -2.46,1.56 z M 10.57,5.64 a 2.24,2.24 0 0 0 -4.47,0 v 0.09 a 2.24,2.24 0 0 0 4.47,0 z"
       id="path2"
       inkscape:connector-curvature="0" />
    <path
       d="M 23.83,10.8 C 23.83,9.85 23.69,8.9 23.56,7.97 23.51,7.65 23.46,7.33 23.43,7.03 a 0.6,0.6 0 1 0 -1.19,0.14 l 0.13,0.97 a 19.4,19.4 0 0 1 0.27,2.75 c 0.47,4.95 -1.39,5.18 -3.54,5.44 -1.7,0.2 -3.8,0.47 -3.79,3.6 a 0.6,0.6 0 1 0 1.2,0 c -0.01,-1.99 0.88,-2.19 2.74,-2.41 l 0.33,-0.04 v 2.5 l -1.94,0.91 a 0.3,0.3 0 0 0 -0.14,0.4 0.3,0.3 0 0 0 0.4,0.14 l 1.93,-0.92 1.78,0.92 0.14,0.03 a 0.3,0.3 0 0 0 0.14,-0.56 l -1.7,-0.88 v -2.63 c 1.99,-0.34 4.14,-1.34 3.64,-6.58 z M 0.84,6.64 H 5.27 V 7.58 H 0.84 Z m 0,-1.16 H 5.27 V 6.42 H 0.84 Z m 0,-0.68 H 5.27 V 5.27 H 0.84 Z m 0,-0.65 H 5.27 V 4.48 H 0.84 Z m 0,-0.58 H 5.27 V 3.79 H 0.84 Z m 0,-0.37 H 5.27 V 3.42 H 0.84 Z m 0,-0.36 H 5.27 V 3.06 H 0.84 Z m 0,-0.37 H 5.27 V 2.69 H 0.84 Z"
       id="path4"
       inkscape:connector-curvature="0" />
  </g>
</svg>
